X: 1
T: Hasty Retreat, The
M: 6/8
L: 1/8
R: jig
K: Emin
|:eBB eBB|ecc ecc|eBB eBB|efe d2B|
eBB eBB|ecc ecc|fef agf|efe e2e:|
|:bee aee|fef gfe|bee aee|efe d2e|
bee aee|fef gfe|fef agf|efe e2e:|
